images/header icon/logo.svg

<svg width="120" height="38" viewBox="0 0 120 38" fill="none" xmlns="http://www.w3.org/2000/svg">
<g clip-path="url(#clip0)">
<path d="M67.9764 10.3996C68.0455 10.3996 68.1319 10.3996 68.2011 10.3824C69.3418 10.2619 70.3616 9.33212 70.5344 8.17852C70.7072 7.04214 69.9813 6.09515 68.8751 5.97463C68.806 5.97463 68.7196 5.95741 68.6505 5.95741C68.5813 5.95741 68.4949 5.95741 68.4258 5.97463C67.285 6.09515 66.2653 7.02492 66.0925 8.17852C66.006 8.78115 66.1616 9.31491 66.49 9.72814C66.8357 10.1414 67.3542 10.3996 67.9764 10.3996Z" fill="#212a2f"/>
<path d="M120 28.8917C120 25.8614 118.514 23.0893 117.2 20.6443C116.077 18.5609 115.074 16.667 115.333 15.2551C115.524 14.2392 116.249 13.6538 117.373 13.585C117.407 13.585 117.442 13.5677 117.477 13.5677C117.528 13.5505 117.58 13.5161 117.632 13.4817C117.684 13.4472 117.719 13.3956 117.736 13.3439C117.736 13.3267 117.753 13.3267 117.753 13.3095L118.306 11.8804C118.358 11.7254 118.375 11.6221 118.324 11.5188C118.289 11.4499 118.237 11.3811 118.151 11.3122C118.047 11.2261 117.874 11.1572 117.649 11.0884C117.338 10.9851 116.941 10.9162 116.578 10.9162C114.953 10.9162 112.966 11.4499 111.237 15.7372C111.168 15.9094 107.832 24.5184 107.729 24.7938C107.314 25.8097 106.432 27.0322 104.566 27.0322C103.753 27.0322 103.097 26.7222 102.734 26.2057C102.665 26.1024 102.613 25.9991 102.561 25.8958C102.423 25.5514 102.371 25.1382 102.457 24.6905C102.492 24.5356 102.526 24.3634 102.578 24.1912C102.665 23.8985 102.786 23.5714 102.924 23.2442C104.203 19.99 108.748 8.40236 110.148 4.83824C110.321 4.39058 110.079 4.029 109.595 4.029H107.988C107.815 4.029 107.625 4.08065 107.469 4.16674C107.176 4.30449 106.934 4.56276 106.813 4.83824C106.19 6.40508 105.309 8.67785 104.376 11.0711C103.65 12.9135 102.907 14.8247 102.215 16.5637C102.008 16.2193 101.766 15.8922 101.507 15.5822C101.23 15.2723 100.936 14.9796 100.625 14.7213C99.277 13.6194 97.5659 13.0168 95.682 13.0168C93.366 13.0168 91.1364 13.9465 89.3908 15.4617C89.3217 15.5134 89.2698 15.5822 89.2007 15.6339C89.1488 15.6683 89.1143 15.72 89.0624 15.7544C87.9217 16.8219 87.0229 18.1477 86.4699 19.6112C86.4699 19.6285 86.4526 19.6457 86.4526 19.6801C86.3834 19.8695 86.3316 20.0589 86.2625 20.2655C86.1588 20.6271 86.0723 20.9887 86.0205 21.3675C85.9686 21.7118 85.9341 22.0562 85.9168 22.4005C85.8822 23.3992 86.0378 24.3806 86.3489 25.2759C86.1933 25.5342 85.9859 25.7753 85.7612 25.9991C85.1217 26.6017 84.2748 26.9977 83.3934 27.0666C83.307 27.0666 83.2378 27.0666 83.1514 27.0666C82.8057 27.0666 82.4773 26.9977 82.1835 26.8944C81.8206 26.7567 81.5095 26.5329 81.3021 26.2401C80.9045 25.672 80.9045 24.8455 81.2675 23.8985C81.3539 23.6575 81.907 22.1939 82.4082 20.8854C82.7884 19.8695 83.1341 18.9225 83.2033 18.7331C83.2378 18.6298 83.307 18.4749 83.3588 18.2855C83.4452 17.9239 83.4971 17.4246 83.2551 16.908C83.1514 16.7014 83.0304 16.5292 82.8922 16.3743C82.6156 16.0816 82.2527 15.9094 81.907 15.7716C81.7687 15.72 81.6304 15.6683 81.4922 15.6339C81.2502 15.565 80.991 15.4617 80.6971 15.3412C80.6798 15.3412 80.6799 15.324 80.6626 15.324C80.1786 15.1174 77.8453 14.0326 77.8453 11.9665C77.8453 11.9148 77.8453 11.8632 77.8453 11.8287C77.8453 11.8115 77.8453 11.7943 77.8453 11.7771C77.8453 11.7599 77.8453 11.7254 77.8453 11.7082C77.8108 11.3983 77.7071 11.2089 77.5688 11.1056C77.5515 11.1056 77.5515 11.0884 77.5342 11.0884C77.5342 11.0884 77.5342 11.0884 77.517 11.0884C77.4997 11.0711 77.4824 11.0711 77.4651 11.0539C77.4651 11.0539 77.4651 11.0539 77.4478 11.0539C77.4478 11.0539 77.4478 11.0539 77.4305 11.0539C77.4133 11.0539 77.4132 11.0367 77.396 11.0367C77.3095 11.0023 77.2231 10.985 77.1194 10.985H75.5293C75.201 10.985 74.838 11.1572 74.596 11.4155C74.4923 11.5188 74.4059 11.6565 74.3541 11.7943C74.0084 12.6724 73.5936 13.7227 73.1615 14.8419C71.6405 18.7331 69.8258 23.3992 69.3072 24.725C69.29 24.7766 69.2727 24.8283 69.2554 24.8799C68.8406 25.8958 67.9591 27.1183 66.0752 27.1183C65.2629 27.1183 64.5888 26.8083 64.2432 26.2918C64.0358 25.9819 63.932 25.5859 63.9493 25.121C63.9666 24.7594 64.053 24.3634 64.2086 23.9502C64.537 23.0893 65.2456 21.2986 65.9888 19.4046C66.6974 17.5967 67.4406 15.6683 67.9591 14.3598C68.132 13.9121 67.89 13.5505 67.4061 13.5505H65.7987H65.6431C65.5394 13.5505 65.4184 13.5677 65.2974 13.6022C65.2802 13.6022 65.2802 13.6022 65.2629 13.6022C64.8826 13.7055 64.5024 13.9638 64.2777 14.2392C63.4481 15.2379 62.3765 16.0471 61.2012 16.6325C60.026 17.2179 58.7643 17.5967 57.5544 17.7345C57.3816 17.2868 57.1569 16.8392 56.8803 16.4259C56.8631 16.4087 56.8631 16.3915 56.8458 16.3743C56.6729 16.116 56.5001 15.8749 56.2927 15.6339C54.8582 13.981 52.8014 13.0684 50.4681 13.0684C49.2237 13.0684 48.0139 13.3439 46.8731 13.826C47.4435 12.3625 48.0139 10.8817 48.5496 9.48709C49.2064 7.78251 49.8286 6.19846 50.3299 4.8899C50.4163 4.68328 50.399 4.5111 50.3299 4.35614C50.2434 4.18396 50.0533 4.08065 49.7941 4.08065H49.7768H48.1867H48.1694C47.9793 4.08065 47.7719 4.14952 47.5818 4.25283C47.3571 4.37336 47.167 4.54554 47.0633 4.75215C47.046 4.80381 47.0114 4.83824 46.9941 4.8899C44.9374 10.1069 41.6535 18.5609 40.098 22.6072C39.6659 23.7091 39.3721 24.5011 39.2511 24.7938C38.8363 25.8097 37.9548 27.0322 36.0882 27.0322C35.9153 27.0322 35.7598 27.015 35.6215 26.9977C35.0339 26.8944 34.5326 26.6362 34.2561 26.2057C34.2043 26.1196 34.1524 26.0335 34.1006 25.9302C33.945 25.5859 33.8932 25.1554 33.9796 24.6905C34.0141 24.4667 34.1351 24.1051 34.2734 23.7435C34.4635 23.227 34.6536 22.7277 34.6536 22.7277C34.6536 22.7277 35.345 20.9715 36.3301 18.4232C36.4338 18.1477 36.5548 17.855 36.6758 17.5451C36.6931 17.5107 36.7104 17.4762 36.7104 17.4418C38.2313 13.5505 40.2708 8.29905 41.7399 4.5111C42.3276 2.9787 42.8288 1.68736 43.1744 0.826461C43.3473 0.378795 43.1053 0.0172176 42.6214 0.0172176H41.014C40.5301 0.0172176 40.0116 0.378795 39.8387 0.826461C39.6486 1.30856 37.9548 5.68192 36.0536 10.5718C33.5993 16.8736 30.8167 24.0363 30.5229 24.8111C30.4537 24.966 30.3846 25.121 30.2982 25.2759C30.0389 25.7753 29.6414 26.2574 29.0883 26.6017C28.6389 26.8772 28.0513 27.0494 27.3427 27.0666C26.6859 27.0666 26.1328 26.8772 25.7526 26.5156C25.6662 26.4295 25.5797 26.3435 25.4933 26.2401C25.2341 25.8441 25.1304 25.3448 25.2341 24.7594V24.7422C25.3205 24.2429 25.9946 22.4866 25.9946 22.4522C26.4266 21.3503 26.9279 20.0417 27.4637 18.647C29.2439 14.0843 31.4216 8.43679 32.8216 4.87268C32.8561 4.76937 32.8734 4.66606 32.8734 4.56276C32.8561 4.42501 32.8043 4.28727 32.7006 4.20118C32.5969 4.11509 32.4586 4.06344 32.2685 4.06344H30.6611C30.4883 4.06344 30.2982 4.11509 30.1253 4.20118C29.8834 4.3217 29.676 4.5111 29.555 4.73493C29.5377 4.76937 29.5031 4.82102 29.4858 4.85546C29.071 5.90576 28.6217 7.07658 28.1377 8.31627C27.6192 9.65927 27.0661 11.0884 26.4958 12.5174C24.2835 18.1994 22.0885 23.8985 21.7255 24.8111C21.6045 25.1038 21.449 25.3965 21.2588 25.6892C20.7403 26.4295 19.9107 27.0494 18.5453 27.0494C18.0441 27.0494 17.5947 26.9289 17.2318 26.7222C17.0244 26.5845 16.8342 26.4295 16.7133 26.2229C16.6268 26.0852 16.5577 25.9474 16.5059 25.7925C16.4022 25.4826 16.3849 25.121 16.454 24.725C16.5404 24.2429 17.0244 22.986 17.1108 22.7966C17.1108 22.7793 17.1281 22.7621 17.1281 22.7621L20.4292 14.2909C20.6021 13.8432 20.3601 13.4817 19.8762 13.4817H18.2688C17.975 13.4817 17.6639 13.6194 17.4219 13.826C17.4046 13.826 17.4046 13.8432 17.4046 13.8432C17.2663 13.9638 17.1626 14.1187 17.1108 14.2737L16.7824 15.1346L16.2639 16.4776C16.1602 16.3226 16.0565 16.1677 15.9528 16.0127C15.8491 15.8577 15.7281 15.72 15.6071 15.5822C15.0886 14.9796 14.4664 14.4631 13.7923 14.0671C12.6343 13.3783 11.2689 13.0168 9.79982 13.0168C6.18755 13.0168 2.7654 15.2895 1.08889 18.4921C0.622234 19.3874 0.293846 20.3516 0.138293 21.3503C-0.224662 23.6919 0.380264 25.913 1.83209 27.5831C2.28146 28.0997 2.78268 28.5474 3.35304 28.9089C3.45674 28.9778 3.57773 29.0467 3.69871 29.1155C4.85672 29.787 6.20484 30.1486 7.65666 30.1486C9.98994 30.1486 12.2541 29.1844 14.017 27.652C14.0689 27.7553 14.138 27.8586 14.2071 27.9619C14.2417 28.0136 14.2936 28.0825 14.3281 28.1341C14.3281 28.1513 14.3454 28.1513 14.3454 28.1686C14.38 28.2202 14.4318 28.2719 14.4664 28.3235C14.501 28.358 14.5355 28.3924 14.5528 28.4268C14.5701 28.4613 14.6047 28.4785 14.6392 28.5129C14.6911 28.5646 14.7429 28.6162 14.7775 28.6679C14.7948 28.6851 14.8121 28.7023 14.8294 28.7195C14.8985 28.7712 14.9503 28.8401 15.0195 28.8917C15.0195 28.8917 15.0195 28.8917 15.0368 28.9089C15.6244 29.4082 16.3676 29.8043 17.2318 30.0109C17.2491 30.0109 17.2663 30.0281 17.2836 30.0281C17.37 30.0453 17.4565 30.0625 17.5429 30.0798C17.5774 30.0798 17.612 30.097 17.6639 30.097C17.733 30.1142 17.8021 30.1142 17.8885 30.1314C17.9577 30.1314 18.0095 30.1486 18.0787 30.1486C18.1305 30.1486 18.1824 30.1658 18.2515 30.1658C18.3725 30.1658 18.4935 30.1831 18.6317 30.1831C19.5305 30.1831 20.3774 30.0109 21.1551 29.6837C21.449 29.5632 21.7255 29.4255 21.9848 29.2533C22.0712 29.2016 22.1576 29.15 22.244 29.0811C22.5897 28.8401 22.9181 28.5818 23.2119 28.2719C23.3156 28.4096 23.4366 28.5301 23.5576 28.6507C24.3526 29.4599 25.4242 29.9592 26.6513 30.1142C26.6859 30.1142 26.7377 30.1314 26.7723 30.1314C26.8069 30.1314 26.8414 30.1314 26.876 30.1314C26.9452 30.1314 27.0143 30.1486 27.0834 30.1486C27.118 30.1486 27.1526 30.1486 27.1698 30.1486C27.239 30.1486 27.3254 30.1486 27.3945 30.1486C29.192 30.1486 30.7821 29.4771 31.9574 28.2719C32.4068 28.8228 32.9771 29.2705 33.6339 29.5976C34.3771 29.9592 35.224 30.1486 36.1227 30.1486C36.5894 30.1486 37.0388 30.097 37.4709 30.0109C39.3548 29.6321 40.9103 28.444 41.8609 26.6534C41.9127 26.7395 41.9646 26.8083 42.0164 26.8944C42.0856 26.9977 42.1547 27.101 42.2239 27.2044C42.3276 27.3421 42.4313 27.4626 42.535 27.6004C43.9695 29.2533 46.0262 30.1658 48.3595 30.1658C51.5397 30.1658 54.5816 28.3924 56.3964 25.8097C57.226 24.6217 57.7964 23.2787 58.0211 21.8496C58.0729 21.488 58.1075 21.1264 58.1248 20.7648C58.4359 20.7304 58.747 20.6788 59.0408 20.6099C60.3716 20.3516 61.616 19.9212 62.7222 19.3358C62.6876 19.4218 62.6531 19.5252 62.6185 19.6112C62.1 20.9715 61.6333 22.1423 61.3914 22.7793C60.6309 24.6905 60.7519 26.5501 61.737 27.9964C62.1 28.5301 62.5666 28.9778 63.1024 29.3222C63.9666 29.8731 65.0036 30.1831 66.1443 30.1831C68.8924 30.1831 71.1566 28.6162 72.2282 25.9647C72.3664 25.6203 72.643 24.8972 73.0059 23.9502C73.7664 22.0045 74.9071 19.0775 75.9441 16.4259C76.0306 16.1849 76.1343 15.9438 76.2207 15.72C77.1194 16.8392 78.3293 17.6828 79.5046 18.1821C79.5737 18.2166 79.6255 18.2338 79.6947 18.2682C79.833 18.3199 79.9712 18.3715 80.0922 18.4232C79.5046 20.0073 78.5713 22.5211 78.4503 22.7966C77.9836 23.9846 77.8453 25.1382 78.0527 26.1885C78.1737 26.8428 78.433 27.4626 78.7959 28.0136C79.0379 28.358 79.3144 28.6679 79.6256 28.9434C80.4897 29.6837 81.6132 30.1314 82.8576 30.2003C82.9786 30.2003 83.0823 30.2175 83.2033 30.2175C83.3934 30.2175 83.5835 30.2003 83.7736 30.1831C83.8082 30.1831 83.86 30.1831 83.8946 30.1658C83.9119 30.1658 83.9292 30.1658 83.9464 30.1658C84.7415 30.0798 85.502 29.8387 86.2106 29.4943C86.9365 29.1328 87.5933 28.6507 88.1464 28.0825C89.2352 29.15 90.6352 29.8387 92.208 30.097C92.6401 30.1658 93.0895 30.2003 93.5561 30.2003C94.1438 30.2003 94.7314 30.1314 95.3018 30.0281C96.8746 29.7182 98.361 28.9778 99.6054 27.9619C99.7264 27.8759 99.8301 27.7725 99.9338 27.6692C100.003 27.7898 100.072 27.9103 100.141 28.0136C100.746 28.8917 101.61 29.5288 102.63 29.8904C102.682 29.9076 102.734 29.9248 102.768 29.942C102.82 29.9592 102.889 29.9764 102.941 29.9937C103.01 30.0109 103.062 30.0281 103.131 30.0453C103.183 30.0625 103.235 30.0625 103.287 30.0798C103.356 30.097 103.408 30.1142 103.477 30.1142C103.529 30.1314 103.581 30.1314 103.632 30.1486C103.702 30.1658 103.753 30.1658 103.823 30.1658C103.892 30.1658 103.961 30.1831 104.03 30.1831C104.082 30.1831 104.134 30.2003 104.186 30.2003C104.307 30.2003 104.428 30.2175 104.566 30.2175C107.314 30.2175 109.578 28.6507 110.65 25.9991C110.701 25.8441 111.704 23.3475 112.516 21.2814C112.758 20.6615 112.983 20.0761 113.156 19.6112C113.242 19.8006 113.346 20.0073 113.432 20.1967C113.761 20.8509 114.106 21.5224 114.469 22.2111C114.763 22.7621 115.074 23.3303 115.351 23.8985C116.198 25.5859 116.906 27.3077 116.906 28.995C116.906 33.971 113.519 34.8491 112.482 35.0041C111.79 35.1074 111.272 35.6411 111.168 36.2954C111.151 36.4504 111.134 36.6054 111.168 36.7603C111.168 36.812 111.185 36.8636 111.203 36.8981C111.376 37.5868 111.998 38.0861 112.706 38.0861C112.741 38.0861 112.775 38.0861 112.827 38.0861C112.862 38.0861 112.896 38.0861 112.948 38.0861C113.761 37.9656 114.625 37.7073 115.437 37.3113C117.84 35.9683 120 33.3512 120 28.8917ZM100.089 21.333C99.7955 23.3648 98.4992 25.1554 96.8055 26.1713C96.7882 26.1885 96.7536 26.2057 96.7363 26.2057C96.7363 26.2057 96.719 26.2057 96.719 26.2229C95.8203 26.7395 94.8178 27.0322 93.7808 27.0322C93.2969 27.0322 92.8302 26.9633 92.3981 26.8256C91.6376 26.5845 90.9636 26.1541 90.4624 25.5514C89.9612 24.9488 89.65 24.2084 89.5291 23.382V23.3648C89.4599 22.8654 89.4599 22.3489 89.5463 21.8151C89.6673 21.0231 89.9266 20.2655 90.3241 19.5768C90.8426 18.647 91.5685 17.855 92.4154 17.2524C93.4352 16.5464 94.6277 16.116 95.8549 16.116C96.6845 16.116 97.4449 16.3054 98.0844 16.6842C98.4992 16.9252 98.8622 17.2352 99.1733 17.5967C99.3289 17.7861 99.4671 17.9755 99.5708 18.1821C99.9683 18.8709 100.158 19.6801 100.158 20.541C100.158 20.7993 100.141 21.0575 100.089 21.333ZM46.9423 26.8772C46.0954 26.6534 45.3695 26.2057 44.8337 25.5342C44.0213 24.5528 43.693 23.227 43.9004 21.7979V21.7807C43.9522 21.4191 44.0386 21.1092 44.125 20.8509C44.246 20.541 44.367 20.2139 44.5053 19.8867C44.5226 19.8351 44.5571 19.8006 44.5744 19.749C44.6263 19.6629 44.6608 19.5768 44.7127 19.4907C44.73 19.4563 44.7473 19.4391 44.7645 19.4046C45.1448 18.7676 45.6114 18.1994 46.1472 17.7173C47.2879 16.7186 48.7225 16.0988 50.2089 16.0988C50.8829 16.0988 51.5224 16.2365 52.0755 16.4776C52.6459 16.7358 53.1298 17.0974 53.5273 17.5795C54.3397 18.5609 54.668 19.8867 54.4606 21.333C53.994 24.4667 51.1595 27.0322 48.1348 27.0322C47.72 27.0322 47.3225 26.9805 46.9423 26.8772ZM7.82949 27.0322C6.46409 27.0322 5.28881 26.4984 4.49376 25.5514C4.40734 25.4481 4.33821 25.3448 4.26907 25.2415C3.6123 24.2945 3.37033 23.0893 3.56045 21.7979C4.0271 18.6643 6.8789 16.0988 9.92081 16.0988C11.2862 16.0988 12.4615 16.6325 13.2565 17.5795C14.0689 18.5609 14.4145 19.8867 14.1899 21.333C14.1553 21.5741 14.1034 21.8151 14.0343 22.0562C13.2738 24.8455 10.6294 27.0322 7.82949 27.0322Z" fill="#212a2f"/>
</g>
<defs>
<clipPath id="clip0">
<rect width="120" height="38" fill="white"/>
</clipPath>
</defs>
</svg>

<svg width="120" height="38" fill="none" xmlns="http://www.w3.org/2000/svg"><g clip-path="url(#clip0)" fill="#212a2f"><path d="M67.976 10.4c.07 0 .156 0 .225-.018 1.14-.12 2.16-1.05 2.333-2.203.173-1.137-.553-2.084-1.659-2.204-.069 0-.155-.018-.225-.018-.069 0-.155 0-.224.018-1.141.12-2.16 1.05-2.334 2.204-.086.602.07 1.136.398 1.55.346.412.864.67 1.486.67z"/><path d="M120 28.892c0-3.03-1.486-5.803-2.8-8.248-1.123-2.083-2.126-3.977-1.867-5.389.191-1.016.916-1.601 2.04-1.67.034 0 .069-.017.104-.017.051-.018.103-.052.155-.086a.266.266 0 00.104-.138c0-.017.017-.017.017-.034l.553-1.43c.052-.155.069-.258.018-.361a.621.621 0 00-.173-.207c-.104-.086-.277-.155-.502-.224a3.576 3.576 0 00-1.071-.172c-1.625 0-3.612.534-5.341 4.821-.069.172-3.405 8.781-3.508 9.057-.415 1.016-1.297 2.238-3.163 2.238-.813 0-1.469-.31-1.832-.826a2.83 2.83 0 01-.173-.31 2.14 2.14 0 01-.104-1.206c.035-.154.069-.327.121-.499a9.39 9.39 0 01.346-.947c1.279-3.254 5.824-14.842 7.224-18.406.173-.447-.069-.809-.553-.809h-1.607c-.173 0-.363.052-.519.138a1.38 1.38 0 00-.656.671c-.623 1.567-1.504 3.84-2.437 6.233-.726 1.843-1.469 3.754-2.161 5.493a7.848 7.848 0 00-.708-.982 8.356 8.356 0 00-.882-.86c-1.348-1.103-3.06-1.705-4.943-1.705-2.316 0-4.546.93-6.291 2.445-.07.051-.121.12-.19.172-.052.034-.087.086-.139.12a10.29 10.29 0 00-2.592 3.857c0 .017-.017.035-.017.07-.07.188-.121.378-.19.584-.104.362-.19.724-.243 1.102-.051.345-.086.69-.103 1.034-.035.998.12 1.98.432 2.875-.156.258-.363.5-.588.723a3.947 3.947 0 01-2.368 1.068h-.242a2.94 2.94 0 01-.968-.173 1.889 1.889 0 01-.88-.654c-.398-.568-.398-1.394-.035-2.341.086-.242.639-1.705 1.14-3.014.38-1.016.726-1.963.795-2.152.035-.103.104-.258.156-.448.086-.361.138-.86-.104-1.377a2.42 2.42 0 00-.363-.534c-.276-.292-.64-.465-.985-.602a3.736 3.736 0 00-.415-.138 7.826 7.826 0 01-.795-.293c-.017 0-.017-.017-.034-.017-.484-.207-2.818-1.291-2.818-3.357v-.259c-.034-.31-.138-.5-.276-.602-.017 0-.017-.018-.035-.018h-.017c-.017-.017-.035-.017-.052-.034h-.034c-.018 0-.018-.017-.035-.017a.72.72 0 00-.277-.052h-1.59c-.328 0-.691.172-.933.43a1.1 1.1 0 00-.242.38c-.346.877-.76 1.928-1.192 3.047-1.522 3.891-3.336 8.557-3.855 9.883l-.052.155c-.414 1.016-1.296 2.238-3.18 2.238-.812 0-1.486-.31-1.832-.826-.207-.31-.311-.706-.294-1.171a3.88 3.88 0 01.26-1.17c.328-.862 1.037-2.652 1.78-4.546.708-1.808 1.452-3.737 1.97-5.045.173-.448-.069-.81-.553-.81h-1.763c-.104 0-.225.018-.346.052h-.034c-.38.104-.76.362-.985.637-.83.999-1.902 1.808-3.077 2.393a11.111 11.111 0 01-3.647 1.102 6.706 6.706 0 00-.674-1.308c-.017-.017-.017-.034-.034-.052a7.5 7.5 0 00-.553-.74c-1.435-1.653-3.492-2.566-5.825-2.566-1.244 0-2.454.276-3.595.758.57-1.463 1.14-2.944 1.677-4.339.656-1.704 1.279-3.289 1.78-4.597a.637.637 0 000-.534c-.087-.172-.277-.275-.536-.275H48.17c-.19 0-.397.069-.587.172a1.21 1.21 0 00-.519.5c-.017.05-.052.085-.069.137a2832.624 2832.624 0 00-6.896 17.717c-.432 1.102-.726 1.894-.847 2.187-.415 1.016-1.296 2.238-3.163 2.238a3.68 3.68 0 01-.467-.034c-.587-.104-1.088-.362-1.365-.792-.052-.086-.104-.172-.155-.276-.156-.344-.208-.775-.121-1.24.034-.223.155-.585.293-.947.19-.516.38-1.015.38-1.015s.692-1.757 1.677-4.305c.104-.275.225-.568.346-.878a.244.244 0 00.034-.103c1.521-3.892 3.56-9.143 5.03-12.93A284.047 284.047 0 0143.174.825c.173-.447-.069-.809-.553-.809h-1.607c-.484 0-1.002.362-1.175.81-.19.482-1.884 4.855-3.785 9.745a5552.359 5552.359 0 00-5.531 14.24c-.07.154-.138.309-.225.464-.26.5-.657.981-1.21 1.326-.45.275-1.037.447-1.745.465-.657 0-1.21-.19-1.59-.551a3.883 3.883 0 01-.26-.276c-.259-.396-.363-.895-.259-1.48v-.018c.086-.5.76-2.255.76-2.29.433-1.102.934-2.41 1.47-3.805 1.78-4.563 3.958-10.21 5.358-13.774a.973.973 0 00.051-.31.553.553 0 00-.172-.362.648.648 0 00-.432-.138H30.66a1.24 1.24 0 00-.536.138c-.242.12-.449.31-.57.534-.017.034-.052.086-.07.12-.414 1.05-.863 2.222-1.347 3.461a400.205 400.205 0 01-1.642 4.201c-2.212 5.682-4.407 11.381-4.77 12.294a5.403 5.403 0 01-.467.878c-.519.74-1.348 1.36-2.714 1.36-.5 0-.95-.12-1.313-.327-.208-.138-.398-.293-.519-.5a1.972 1.972 0 01-.207-.43c-.104-.31-.121-.671-.052-1.067.086-.482.57-1.739.657-1.928 0-.018.017-.035.017-.035l3.301-8.471c.173-.448-.069-.81-.553-.81H18.27c-.294 0-.605.138-.847.345-.017 0-.017.017-.017.017a1.01 1.01 0 00-.294.43l-.329.862-.518 1.343-.311-.465a4.144 4.144 0 00-.346-.43 7.26 7.26 0 00-1.815-1.516c-1.158-.689-2.523-1.05-3.992-1.05-3.612 0-7.035 2.273-8.711 5.475a9.287 9.287 0 00-.95 2.858c-.364 2.342.241 4.563 1.693 6.233A6.946 6.946 0 003.7 29.116c1.158.671 2.506 1.033 3.958 1.033 2.333 0 4.597-.965 6.36-2.497.052.103.121.207.19.31.035.052.087.12.121.172 0 .017.017.017.017.035.035.051.087.103.121.154.035.035.07.07.087.104.017.034.052.052.086.086.052.052.104.103.139.155l.051.052c.07.051.121.12.19.172l.018.017c.587.5 1.33.895 2.195 1.102.017 0 .034.017.052.017l.259.052c.034 0 .069.017.12.017.07.017.14.017.226.034.069 0 .12.018.19.018.052 0 .103.017.172.017.121 0 .242.017.38.017.9 0 1.746-.172 2.524-.5.294-.12.57-.258.83-.43a2.15 2.15 0 00.259-.172c.346-.24.674-.5.968-.81.104.139.225.26.346.38.795.809 1.866 1.308 3.093 1.463.035 0 .087.017.121.017h.104c.07 0 .138.018.207.018h.311c1.798 0 3.388-.672 4.563-1.877.45.55 1.02.998 1.677 1.326.743.361 1.59.55 2.489.55a6.88 6.88 0 001.348-.137c1.884-.379 3.44-1.567 4.39-3.358.052.087.104.155.155.241l.208.31c.104.138.207.259.311.396 1.434 1.653 3.491 2.566 5.825 2.566 3.18 0 6.222-1.774 8.036-4.356.83-1.188 1.4-2.531 1.625-3.96.052-.362.087-.724.104-1.085.31-.035.622-.086.916-.155a13.29 13.29 0 003.681-1.274c-.034.086-.069.19-.104.275-.518 1.36-.985 2.531-1.227 3.168-.76 1.912-.64 3.771.346 5.217.363.534.83.982 1.365 1.326.865.551 1.902.861 3.042.861 2.748 0 5.013-1.567 6.084-4.218.138-.345.415-1.068.778-2.015.76-1.945 1.901-4.872 2.938-7.524.087-.241.19-.482.277-.706.898 1.12 2.108 1.963 3.284 2.462.069.035.12.052.19.086.138.052.276.104.397.155-.587 1.584-1.52 4.098-1.642 4.374-.466 1.188-.605 2.341-.397 3.392.12.654.38 1.274.743 1.825.242.344.518.654.83.93.864.74 1.987 1.187 3.232 1.256.12 0 .224.018.345.018.19 0 .38-.018.57-.035.035 0 .087 0 .122-.017h.051a6.878 6.878 0 002.265-.672 7.168 7.168 0 001.935-1.412c1.09 1.068 2.49 1.757 4.062 2.015.432.069.882.103 1.348.103.588 0 1.175-.069 1.746-.172 1.573-.31 3.059-1.05 4.303-2.066.121-.086.225-.19.329-.293.069.12.138.241.207.345.605.878 1.469 1.515 2.489 1.876.052.018.104.035.138.052.052.017.121.034.173.052.069.017.121.034.19.051.052.017.104.017.156.035.069.017.121.034.19.034.052.017.104.017.155.035.07.017.121.017.191.017.069 0 .138.017.207.017.052 0 .104.017.156.017.121 0 .242.018.38.018 2.748 0 5.012-1.567 6.084-4.219.051-.155 1.054-2.651 1.866-4.718.242-.62.467-1.205.64-1.67.086.19.19.396.276.586.329.654.674 1.325 1.037 2.014.294.551.605 1.12.882 1.688.847 1.687 1.555 3.409 1.555 5.096 0 4.976-3.387 5.854-4.424 6.01a1.556 1.556 0 00-1.314 1.29c-.017.155-.034.31 0 .465 0 .052.017.104.035.138a1.566 1.566 0 001.503 1.188h.242a8.646 8.646 0 002.489-.775c2.403-1.343 4.563-3.96 4.563-8.42zm-19.911-7.559c-.293 2.032-1.59 3.822-3.284 4.838a.131.131 0 01-.069.035s-.017 0-.017.017a5.89 5.89 0 01-2.938.81c-.484 0-.95-.07-1.383-.207a4.11 4.11 0 01-1.936-1.275c-.5-.602-.812-1.343-.933-2.169v-.017c-.07-.5-.07-1.016.017-1.55.121-.792.38-1.55.778-2.238a7.125 7.125 0 012.091-2.325c1.02-.706 2.213-1.136 3.44-1.136.83 0 1.59.19 2.23.568.414.241.777.551 1.088.913.156.19.294.378.398.585.397.689.587 1.498.587 2.359 0 .258-.017.517-.069.792zm-53.147 5.544c-.847-.224-1.572-.671-2.108-1.343-.813-.981-1.141-2.307-.934-3.736v-.017a5.29 5.29 0 01.225-.93c.121-.31.242-.637.38-.964.018-.052.052-.086.07-.138.051-.086.086-.172.138-.258.017-.035.034-.052.051-.086a7.302 7.302 0 011.383-1.688c1.14-.998 2.575-1.618 4.062-1.618a4.69 4.69 0 011.866.379c.57.258 1.055.62 1.452 1.101.813.982 1.141 2.308.934 3.754-.467 3.134-3.301 5.7-6.326 5.7-.415 0-.813-.053-1.193-.156zm-39.113.155c-1.365 0-2.54-.534-3.335-1.48a3.5 3.5 0 01-.225-.31c-.657-.948-.899-2.153-.709-3.444.467-3.134 3.319-5.7 6.36-5.7 1.366 0 2.541.535 3.337 1.482.812.98 1.158 2.307.933 3.753a5.414 5.414 0 01-.156.723c-.76 2.79-3.405 4.976-6.205 4.976z"/></g><defs><clipPath id="clip0"><path fill="#fff" d="M0 0h120v38H0z"/></clipPath></defs></svg>
